X:1
T:Title
%%score 1 2
L:1/8
Q:1/4=85
M:3/4
K:Ab
V:1 treble nm="Grand Piano, Soprano"
V:2 bass nm="Choir Pad, Honor Oak, 87.87 D"
V:1
 (3[CE][_C=D][=CE] [CA]2 [CA]2 | (3[CE][_C=D][=CE] [_DF]2 [DF]2 | (3[FA][EG][DF] [CE]2 [CA]2 | %3
w: By~W.~A.~Post,~1903 * * * *|||
 [Ec]>[Ec] [EB]4 | (3E[=DF][_DG] [CA]2 [CA]2 | (3[CE][_C=D][=CE] [_DF]2 [DF]2 | %6
w: |||
 (3[F-B][F-d][FAf] [Ae]2 [Ec]2 | [Ec]>[DB] [CA]4 | (3[Ac][Bd][_c=d] [=ce]2 [ce]2 | %9
w: |||
 (3[ce][Bd][Ac] [GB]2 [GB]2 | [GB]>[Ac] [Bd]3- [Bd]/[=Ac]/ | [Bd]>[df] [ce]2 [Ac]2 | %12
w: |||
 (3[E-c][EB][EA] [EG]2 [DF]2 | [FA]>[DF] [DF]2 [CE]2 | [EA]>[FB] [Ec]2 [Ec]2 | [Ec]>[DB] [CA]4- | %16
w: ||||
 [CA]4 z2 |] %17
w: |
V:2
 (3:2:2[A,,A,]2 [A,,A,] [A,,E,]2 [A,,E,]2 | (3:2:2[A,,A,]2 [A,,A,] [D,A,]2 [D,A,]2 | %2
 (3:2:2[D,D]2 [D,A,] [A,,A,]2 [A,,E,]2 | [A,,A,]>[C,A,] [E,G,]4 | %4
 (3[E,-G,][E,A,][E,B,] [A,,A,]2 [A,,E,]2 | (3:2:2[A,,A,]2 [A,,A,] [D,A,]2 [D,A,]2 | %6
 (3:2:2[D,D]2 [=D,_C] [E,=C]2 [E,A,]2 | [E,G,]>[E,G,] [A,,A,]4 | (3:2:2[A,E]2 [A,E] [A,E]2 [A,E]2 | %9
 (3:2:2[A,E]2 [A,E] [E,E]2 [E,E]2 | [E,E]>[E,E] [E,E]3- [E,E]/[E,E]/ | [E,E]>[E,E] [A,E]4 | %12
 (3[A,,A,-][B,,A,][C,A,] [D,A,]2 [D,A,]2 | [D,D]>[D,A,] [A,,A,]2 [A,,A,]2 | %14
 [C,A,]>[D,A,] [E,A,]2 [E,A,]2 | [E,G,]>[E,G,] [A,,A,]4- | [A,,A,]4 z2 |] %17

